X:277
T:Shepherd's Daughter* (reel), The 
B:CRE2.230 (gan ainm)
F:file ID: cre.2/277shep_d
M:C
R:reel
Q:180
K:D
"E dorian"
e3f ed (3Bcd|eAA2 BABd|e2ge edBe|dGBG dG (3Bcd|
edeg ed (3Bcd|eAAG A3A|GABd dega|1 b2ab gage:|2 bgaf g4||
|:eaaf gfg2|eabe ed (3Bcd|eaab ga (3bag|eAce gd (3Bcd|
eaab g2gb|a2ab (3[ac']ba bg|eaa2 ga (3bag|eAce gd (3Bcd:|

%%%

